X: 32801
T: Poor Man's Fortune, The
R: reel
M: 4/4
K: Dmajor
FDEC D3 e|f zed dcAB|=cedc BG ~G2|~E3 F GBAF|
DFAd D3 e|f zed dcAB|=cedc BG ~G2|1 ED=CE DGAG:|2 ED=CE D2 z B||
|:=c2 gc acgc|G=ceg agfe|cdad bdad|Adfa bafd|
=c2 gc acgc|agfe defg|afge fded|1 "^*" ~=c2 cd cBAB:|2 "^*" ~=c2 cd cBAG||

